images/ProcessIcons/Extensive Market Research.svg

<svg width="32" height="32" viewBox="0 0 32 32" fill="none" xmlns="http://www.w3.org/2000/svg">
<path d="M25.394 23.9998C25.9914 22.5661 26.1515 20.9878 25.8544 19.4633C25.5573 17.9388 24.8161 16.5362 23.724 15.4318C24.0245 14.6745 24.0815 13.8425 23.887 13.0513C23.6925 12.2602 23.2563 11.5494 22.639 11.0178L25.415 8.24176C25.7898 7.8664 26.0002 7.35767 26.0002 6.82726C26.0002 6.29685 25.7898 5.78811 25.415 5.41276L22.587 2.58476C22.2116 2.21 21.7029 1.99951 21.1725 1.99951C20.6421 1.99951 20.1334 2.21 19.758 2.58476L6.586 15.7568C6.21149 16.1322 6.00117 16.6409 6.00117 17.1713C6.00117 17.7016 6.21149 18.2103 6.586 18.5858L9.414 21.4138C9.78936 21.7885 10.2981 21.999 10.8285 21.999C11.3589 21.999 11.8676 21.7885 12.243 21.4138L17.018 16.6388C17.6951 17.4218 18.6537 17.9064 19.6858 17.9872C20.7178 18.0681 21.7402 17.7388 22.531 17.0708C23.3531 18.0113 23.858 19.187 23.974 20.4308C24.09 21.6747 23.8111 22.9234 23.177 23.9998H16V27.9998H4V29.9998H28V23.9998H25.394ZM10.828 19.9998L8 17.1708L9.879 15.2928L12.707 18.1208L10.828 19.9998ZM16 13.9998C16.0014 14.2523 16.0269 14.5041 16.076 14.7518L14.121 16.7068L11.293 13.8788L21.173 3.99876L24 6.82676L20.751 10.0768C20.1725 9.96197 19.5757 9.97728 19.0039 10.1216C18.4321 10.2659 17.8995 10.5355 17.4447 10.911C16.99 11.2865 16.6244 11.7585 16.3745 12.2927C16.1247 12.8269 15.9967 13.41 16 13.9998ZM20 15.9998C19.6044 15.9998 19.2178 15.8825 18.8889 15.6627C18.56 15.4429 18.3036 15.1306 18.1522 14.7651C18.0009 14.3997 17.9613 13.9975 18.0384 13.6096C18.1156 13.2216 18.3061 12.8652 18.5858 12.5855C18.8655 12.3058 19.2219 12.1154 19.6098 12.0382C19.9978 11.961 20.3999 12.0006 20.7654 12.152C21.1308 12.3034 21.4432 12.5597 21.6629 12.8886C21.8827 13.2175 22 13.6042 22 13.9998C21.9995 14.53 21.7886 15.0384 21.4136 15.4134C21.0387 15.7883 20.5303 15.9992 20 15.9998V15.9998ZM26 27.9998H18V25.9998H26V27.9998Z" fill="black"/>
</svg>

<svg xmlns="http://www.w3.org/2000/svg" width="32" height="32" fill="none" xmlns:v="https://vecta.io/nano"><path d="M25.394 24c.597-1.434.758-3.012.46-4.536s-1.038-2.927-2.13-4.031a3.92 3.92 0 0 0-1.085-4.414l2.776-2.776a2 2 0 0 0 0-2.829l-2.828-2.828a2 2 0 0 0-2.829 0L6.586 15.757c-.375.375-.585.884-.585 1.414s.21 1.039.585 1.415l2.828 2.828a2 2 0 0 0 2.829 0l4.775-4.775c.677.783 1.636 1.268 2.668 1.348s2.054-.248 2.845-.916c.822.941 1.327 2.116 1.443 3.36s-.163 2.493-.797 3.569H16v4H4v2h24v-6h-2.606zm-14.566-4L8 17.171l1.879-1.878 2.828 2.828L10.828 20zM16 14a3.98 3.98 0 0 0 .076.752l-1.955 1.955-2.828-2.828 9.88-9.88L24 6.827l-3.249 3.25c-.579-.115-1.175-.1-1.747.045a3.98 3.98 0 0 0-2.629 2.171A3.98 3.98 0 0 0 16 14zm4 2a2 2 0 0 1-1.848-1.235 2 2 0 0 1 .434-2.18 2 2 0 0 1 2.18-.434A2 2 0 0 1 22 14a2 2 0 0 1-2 2h0zm6 12h-8v-2h8v2z" fill="#000"/></svg>
